packages/assets/application-icons/25.Network.svg

<?xml version="1.0" encoding="UTF-8"?>
<svg width="24px" height="24px" viewBox="0 0 24 24" version="1.1" xmlns="http://www.w3.org/2000/svg" xmlns:xlink="http://www.w3.org/1999/xlink">
    <title>25.Network</title>
    <g id="Page-1" stroke="none" stroke-width="1" fill="none" fill-rule="evenodd">
        <g id="Artboard" transform="translate(-66.000000, -237.000000)" fill="#000000" fill-rule="nonzero">
            <g id="25.Network" transform="translate(66.000000, 237.000000)">
                <path d="M13.173913,3 C11.9922522,3 11.0217391,3.97051304 11.0217391,5.15217391 C11.0217391,5.91112826 11.4249391,6.58452391 12.0244565,6.96806087 L11.0461957,10.0434783 C11.0379783,10.0434196 11.0299565,10.0434783 11.0217391,10.0434783 C10.2117587,10.0434783 9.47538261,10.3761848 8.94293478,10.9116848 L6.70516304,8.95516304 C6.83693478,8.69265652 6.91304348,8.39849348 6.91304348,8.08695652 C6.91304348,7.01335435 6.03012391,6.13043478 4.95652174,6.13043478 C3.88291957,6.13043478 3,7.01335435 3,8.08695652 C3,9.1605587 3.88291957,10.0434783 4.95652174,10.0434783 C5.29501957,10.0434783 5.6130913,9.9588587 5.89197391,9.80501739 L8.29483696,11.9082841 C8.16294783,12.2411276 8.08695652,12.6000124 8.08695652,12.9782667 C8.08695652,13.5736559 8.26815,14.1283689 8.57608696,14.5923972 L6.53396739,16.6345167 C6.1850413,16.4282015 5.77976739,16.3043537 5.34782609,16.3043537 C4.05812609,16.3043537 3,17.3624602 3,18.6521798 C3,19.9418993 4.05810652,21 5.34782609,21 C6.63754565,21 7.69565217,19.9418993 7.69565217,18.6521798 C7.69565217,18.2171863 7.57450435,17.8105037 7.36548913,17.4599146 L9.40150435,15.4239189 C9.86647174,15.7337733 10.4243152,15.9130493 11.0217391,15.9130493 C11.5561043,15.9130493 12.0563087,15.7679537 12.4891304,15.5156407 L13.3451087,16.4755493 C13.1122043,16.8192515 12.9782609,17.2307863 12.9782609,17.6739189 C12.9782609,18.8555798 13.9487739,19.8260928 15.1304348,19.8260928 C16.3120957,19.8260928 17.2826087,18.8555798 17.2826087,17.6739189 C17.2826087,16.492258 16.3120957,15.521745 15.1304348,15.521745 C14.8153174,15.521745 14.5145609,15.5937646 14.2438957,15.7173972 L13.3695652,14.733032 C13.7375283,14.2426689 13.9565217,13.6347776 13.9565217,12.9782667 C13.9565217,12.7744754 13.9354304,12.5775711 13.8953804,12.3852059 L17.8817935,11.1623739 C18.2059304,11.554408 18.6960196,11.8043537 19.2391304,11.8043537 C20.2046739,11.8043537 21,11.0090217 21,10.0434783 C21,9.07793478 20.2046739,8.2826087 19.2391304,8.2826087 C18.273587,8.2826087 17.4782609,9.07793478 17.4782609,10.0434783 C17.4782609,10.0495435 17.4782022,10.0558043 17.4782609,10.0618696 L13.4245826,11.3091522 C13.1167826,10.8699522 12.6910435,10.5129065 12.1956522,10.294187 L13.1494565,7.30438696 C13.1576739,7.30448478 13.1656957,7.30438696 13.173913,7.30438696 C14.3555739,7.30438696 15.326087,6.33387391 15.326087,5.15221304 C15.326087,3.97055217 14.3555739,3 13.173913,3 L13.173913,3 Z M13.173913,4.17391304 C13.7211522,4.17391304 14.1521739,4.60493478 14.1521739,5.15217391 C14.1521739,5.69941304 13.7211522,6.13043478 13.173913,6.13043478 C12.6266739,6.13043478 12.1956522,5.69941304 12.1956522,5.15217391 C12.1956522,4.60493478 12.6266739,4.17391304 13.173913,4.17391304 Z M4.95652174,7.30434783 C5.39570217,7.30434783 5.73913043,7.64777609 5.73913043,8.08695652 C5.73913043,8.52613696 5.39570217,8.86956522 4.95652174,8.86956522 C4.5173413,8.86956522 4.17391304,8.52613696 4.17391304,8.08695652 C4.17391304,7.64777609 4.5173413,7.30434783 4.95652174,7.30434783 Z M19.2391304,9.45652174 C19.5702522,9.45652174 19.826087,9.71235652 19.826087,10.0434783 C19.826087,10.3746 19.5702522,10.6304348 19.2391304,10.6304348 C18.9080087,10.6304348 18.6521739,10.3746 18.6521739,10.0434783 C18.6521739,9.71235652 18.9080087,9.45652174 19.2391304,9.45652174 Z M11.0217391,11.2173913 C12.0011935,11.2173913 12.7826087,11.9988124 12.7826087,12.9782667 C12.7826087,13.9577211 12.0011935,14.7391363 11.0217391,14.7391363 C10.0422848,14.7391363 9.26086957,13.9577211 9.26086957,12.9782667 C9.26086957,11.9988124 10.0422848,11.2173913 11.0217391,11.2173913 Z M15.1304348,16.695658 C15.6776739,16.695658 16.1086957,17.1266798 16.1086957,17.6739189 C16.1086957,18.221158 15.6776739,18.6521798 15.1304348,18.6521798 C14.5831957,18.6521798 14.1521739,18.221158 14.1521739,17.6739189 C14.1521739,17.1266798 14.5831957,16.695658 15.1304348,16.695658 Z M5.34782609,17.4782667 C6.00310435,17.4782667 6.52173913,17.996882 6.52173913,18.6521798 C6.52173913,19.307458 6.00308478,19.8260928 5.34782609,19.8260928 C4.69256739,19.8260928 4.17391304,19.307458 4.17391304,18.6521798 C4.17391304,17.996882 4.69254783,17.4782667 5.34782609,17.4782667 Z" id="Network"></path>
            </g>
        </g>
    </g>
</svg>

<svg width="24" height="24" viewBox="0 0 24 24" xmlns="http://www.w3.org/2000/svg"><path d="M13.174 3c-1.182 0-2.152.97-2.152 2.152 0 .76.403 1.433 1.002 1.816l-.978 3.075h-.024c-.81 0-1.547.333-2.08.869L6.706 8.955a1.93 1.93 0 0 0 .208-.868A1.965 1.965 0 0 0 4.957 6.13 1.965 1.965 0 0 0 3 8.087c0 1.074.883 1.956 1.957 1.956.338 0 .656-.084.935-.238l2.403 2.103a2.892 2.892 0 0 0 .281 2.684l-2.042 2.043a2.327 2.327 0 0 0-1.186-.33A2.357 2.357 0 0 0 3 18.651 2.357 2.357 0 0 0 5.348 21a2.357 2.357 0 0 0 2.348-2.348 2.32 2.32 0 0 0-.33-1.192l2.036-2.036a2.913 2.913 0 0 0 3.087.092l.856.96a2.126 2.126 0 0 0-.367 1.198c0 1.182.97 2.152 2.152 2.152 1.182 0 2.153-.97 2.153-2.152 0-1.182-.97-2.152-2.153-2.152-.315 0-.615.072-.886.195l-.874-.984a2.916 2.916 0 0 0 .525-2.348l3.987-1.223c.324.392.814.642 1.357.642A1.77 1.77 0 0 0 21 10.044a1.77 1.77 0 0 0-1.76-1.761 1.77 1.77 0 0 0-1.762 1.76v.019l-4.053 1.247a2.98 2.98 0 0 0-1.23-1.015l.954-2.99h.025c1.182 0 2.152-.97 2.152-2.152 0-1.181-.97-2.152-2.152-2.152Zm0 1.174a.97.97 0 0 1 .978.978.97.97 0 0 1-.978.978.97.97 0 0 1-.978-.978.97.97 0 0 1 .978-.978Zm-8.217 3.13c.439 0 .782.344.782.783 0 .44-.343.783-.782.783a.774.774 0 0 1-.783-.783c0-.44.343-.783.783-.783Zm14.282 2.153c.331 0 .587.255.587.586a.578.578 0 0 1-.587.587.578.578 0 0 1-.587-.587c0-.33.256-.586.587-.586Zm-8.217 1.76c.98 0 1.76.782 1.76 1.761 0 .98-.78 1.761-1.76 1.761s-1.761-.781-1.761-1.76c0-.98.781-1.762 1.76-1.762Zm4.108 5.479a.97.97 0 0 1 .979.978.97.97 0 0 1-.979.978.97.97 0 0 1-.978-.978.97.97 0 0 1 .978-.978Zm-9.782.782c.655 0 1.174.519 1.174 1.174 0 .655-.519 1.174-1.174 1.174a1.165 1.165 0 0 1-1.174-1.174c0-.655.519-1.174 1.174-1.174Z" fill="#000" fill-rule="nonzero"/></svg>
